;Generated with Cura_SteamEngine DEV
;startGCode
M109 S220
M300
M206 X500
M107
G28
G92 E
M130 T6 U1.3 V80
G1 X-98.0 Y-20.0 Z5.0 F3000
G1 Y-68.0 Z0.3
G1 X-98.0 Y0.0 F500 E20
G92 E

;BEESOFT SPECIFIC
M642 W1.066
M31 A0 L0

;Layer count: 90
;LAYER:0
M107
G0 F6000 X-17.65 Y0.00 Z0.30
;TYPE:WALL-INNER
G1 F6000 E0.00000
G1 F900 X-17.69 Y-0.56 E0.04449
G1 X-17.83 Y-1.10 E0.08897
G1 X-18.05 Y-1.61 E0.13281
G1 X-18.30 Y-2.02 E0.17081
G1 X-18.66 Y-2.44 E0.21470
G1 X-19.08 Y-2.80 E0.25863
G1 X23.89 Y-2.80 E3.66748
G1 X23.90 Y2.79 E4.11131
G1 X-19.08 Y2.80 E7.52079
G1 X-18.66 Y2.44 E7.56468
G1 X-18.30 Y2.02 E7.60912
G1 X-18.00 Y1.53 E7.65388
G1 X-17.80 Y1.02 E7.69764
G1 X-17.69 Y0.55 E7.73564
G1 X-17.69 Y0.55 E7.73564
G1 F6000 E7.23564
G0 X-18.25 Y0.00
;TYPE:WALL-OUTER
G1 F6000 E7.73564
G1 F900 X-18.29 Y-0.46 E7.77241
G1 X-18.40 Y-0.91 E7.80904
G1 X-18.58 Y-1.33 E7.84553
G1 X-18.79 Y-1.66 E7.87648
G1 X-19.08 Y-2.01 E7.91294
G1 X-19.43 Y-2.31 E7.94962
G1 X-19.83 Y-2.55 E7.98645
G1 X-20.26 Y-2.72 E8.02295
G1 X-20.64 Y-2.81 E8.05385
G1 X-21.10 Y-2.85 E8.09047
G1 X-21.56 Y-2.81 E8.12724
G1 X-22.01 Y-2.70 E8.16387
G1 X-22.43 Y-2.52 E8.20036
G1 X-22.76 Y-2.31 E8.23131
G1 X-23.11 Y-2.02 E8.26777
G1 X-23.41 Y-1.66 E8.30445
G1 X-23.65 Y-1.27 E8.34128
G1 X-23.82 Y-0.84 E8.37778
G1 X-23.91 Y-0.46 E8.40868
G1 X-23.95 Y0.00 E8.44522
G1 X-23.91 Y0.46 E8.48199
G1 X-23.80 Y0.91 E8.51862
G1 X-23.62 Y1.33 E8.55511
G1 X-23.41 Y1.66 E8.58606
G1 X-23.11 Y2.01 E8.62252
G1 X-22.76 Y2.31 E8.65920
G1 X-22.37 Y2.55 E8.69603
G1 X-21.94 Y2.72 E8.73253
G1 X-21.56 Y2.81 E8.76343
G1 X-21.10 Y2.85 E8.79997
G1 X-20.64 Y2.81 E8.83682
G1 X-20.19 Y2.70 E8.87345
G1 X-19.77 Y2.52 E8.90994
G1 X-19.43 Y2.31 E8.94089
G1 X-19.09 Y2.02 E8.97735
G1 X-18.78 Y1.66 E9.01403
G1 X-18.55 Y1.27 E9.05086
G1 X-18.38 Y0.84 E9.08736
G1 X-18.29 Y0.46 E9.11826
G1 X-18.29 Y0.46 E9.11826
G0 X-18.25 Y0.00
G1 F6000 E8.61826
G0 X-21.08 Y3.40
G1 F6000 E9.11826
G1 F900 X-21.65 Y3.35 E9.16366
G1 X-21.99 Y3.28 E9.19077
G1 X-22.42 Y3.13 E9.22695
G1 X-22.82 Y2.93 E9.26242
G1 X-23.27 Y2.61 E9.30644
G1 X-23.60 Y2.30 E9.34185
G1 X-23.88 Y1.96 E9.37744
G1 X-24.16 Y1.47 E9.42151
G1 X-24.33 Y1.05 E9.45738
G1 X-24.44 Y0.62 E9.49278
G1 X-24.49 Y0.28 E9.52049
G1 X-24.49 Y-0.17 E9.55627
G1 X-24.44 Y-0.62 E9.59182
G1 X-24.29 Y-1.16 E9.63611
G1 X-24.12 Y-1.56 E9.67135
G1 X-23.82 Y-2.03 E9.71519
G1 X-23.52 Y-2.38 E9.75126
G1 X-23.28 Y-2.61 E9.77825
G1 X-22.82 Y-2.93 E9.82263
G1 X-22.42 Y-3.13 E9.85800
G1 X-21.99 Y-3.28 E9.89415
G1 X-21.55 Y-3.37 E9.92995
G1 X24.08 Y-3.40 E13.54917
G1 X24.31 Y-3.33 E13.56828
G1 X24.44 Y-3.21 E13.58248
G1 X24.50 Y-3.03 E13.59738
G1 X24.50 Y2.98 E14.07404
G1 X24.43 Y3.21 E14.09316
G1 X24.31 Y3.34 E14.10735
G1 X24.13 Y3.40 E14.12225
G1 X-21.08 Y3.40 E17.70887
G0 X-21.08 Y3.40
G1 F6000 E17.20887
G0 X-18.37 Y2.42
;TYPE:FILL
G1 F6000 E17.70887
G1 F900 X-18.10 Y2.26 E17.72766
G1 X-17.35 Y2.59 E17.79253
G0 F6000 X-16.50 Y2.59
G1 F900 X-17.72 Y1.37 E17.92883
G0 F6000 X-17.52 Y0.73
G1 F900 X-15.65 Y2.59 E18.13783
G0 F6000 X-14.80 Y2.59
G1 F900 X-17.44 Y-0.04 E18.43337
G0 F6000 X-17.60 Y-1.05
G1 F900 X-13.96 Y2.59 E18.84172
G0 F6000 X-13.11 Y2.59
G1 F900 X-18.29 Y-2.59 E19.42272
G0 F6000 X-17.44 Y-2.59
G1 F900 X-12.26 Y2.59 E20.00366
G0 F6000 X-11.41 Y2.59
G1 F900 X-16.59 Y-2.59 E20.58460
G0 F6000 X-15.74 Y-2.59
G1 F900 X-10.56 Y2.59 E21.16554
G0 F6000 X-9.71 Y2.59
G1 F900 X-14.89 Y-2.59 E21.74648
G0 F6000 X-14.04 Y-2.59
G1 F900 X-8.87 Y2.59 E22.32742
G0 F6000 X-8.02 Y2.59
G1 F900 X-13.20 Y-2.59 E22.90836
G0 F6000 X-12.35 Y-2.59
G1 F900 X-7.17 Y2.59 E23.48930
G0 F6000 X-6.32 Y2.59
G1 F900 X-11.50 Y-2.59 E24.07018
G0 F6000 X-10.65 Y-2.59
G1 F900 X-5.47 Y2.59 E24.65106
G0 F6000 X-4.62 Y2.59
G1 F900 X-9.80 Y-2.59 E25.23195
G0 F6000 X-8.95 Y-2.59
G1 F900 X-3.77 Y2.59 E25.81289
G0 F6000 X-2.93 Y2.59
G1 F900 X-8.11 Y-2.59 E26.39377
G0 F6000 X-7.26 Y-2.59
G1 F900 X-2.08 Y2.59 E26.97471
G0 F6000 X-1.23 Y2.59
G1 F900 X-6.41 Y-2.59 E27.55560
G0 F6000 X-5.56 Y-2.59
G1 F900 X-0.38 Y2.59 E28.13648
G0 F6000 X0.47 Y2.59
G1 F900 X-4.71 Y-2.59 E28.71720
G0 F6000 X-3.86 Y-2.59
G1 F900 X1.31 Y2.59 E29.29791
G0 F6000 X2.16 Y2.59
G1 F900 X-3.01 Y-2.59 E29.87868
G0 F6000 X-2.17 Y-2.59
G1 F900 X3.01 Y2.59 E30.45940
G0 F6000 X3.86 Y2.59
G1 F900 X-1.32 Y-2.59 E31.04017
G0 F6000 X-0.47 Y-2.59
G1 F900 X4.71 Y2.59 E31.62089
G0 F6000 X5.56 Y2.59
G1 F900 X0.38 Y-2.59 E32.20172
G0 F6000 X1.23 Y-2.59
G1 F900 X6.40 Y2.59 E32.78237
G0 F6000 X7.25 Y2.59
G1 F900 X2.08 Y-2.59 E33.36309
G0 F6000 X2.92 Y-2.59
G1 F900 X8.10 Y2.59 E33.94381
G0 F6000 X8.95 Y2.59
G1 F900 X3.77 Y-2.59 E34.52452
G0 F6000 X4.62 Y-2.59
G1 F900 X9.80 Y2.59 E35.10524
G0 F6000 X10.65 Y2.59
G1 F900 X5.47 Y-2.59 E35.68595
G0 F6000 X6.32 Y-2.59
G1 F900 X11.50 Y2.59 E36.26667
G0 F6000 X12.34 Y2.58
G1 F900 X7.17 Y-2.59 E36.84727
G0 F6000 X8.02 Y-2.59
G1 F900 X13.19 Y2.58 E37.42788
G0 F6000 X14.04 Y2.58
G1 F900 X8.86 Y-2.59 E38.00854
G0 F6000 X9.71 Y-2.59
G1 F900 X14.89 Y2.58 E38.58914
G0 F6000 X15.74 Y2.58
G1 F900 X10.56 Y-2.59 E39.16974
G0 F6000 X11.41 Y-2.59
G1 F900 X16.59 Y2.58 E39.75035
G0 F6000 X17.43 Y2.58
G1 F900 X12.26 Y-2.59 E40.33095
G0 F6000 X13.11 Y-2.59
G1 F900 X18.28 Y2.58 E40.91150
G0 F6000 X19.13 Y2.58
G1 F900 X13.96 Y-2.59 E41.49205
G0 F6000 X14.80 Y-2.59
G1 F900 X19.98 Y2.58 E42.07265
G0 F6000 X20.83 Y2.58
G1 F900 X15.65 Y-2.59 E42.65320
G0 F6000 X16.50 Y-2.59
G1 F900 X21.68 Y2.58 E43.23380
G0 F6000 X22.52 Y2.58
G1 F900 X17.35 Y-2.59 E43.81435
G0 F6000 X18.20 Y-2.59
G1 F900 X23.37 Y2.58 E44.39495
G0 F6000 X23.69 Y2.05
G1 F900 X19.05 Y-2.59 E44.91570
G0 F6000 X19.89 Y-2.59
G1 F900 X23.69 Y1.20 E45.34116
G0 F6000 X23.69 Y0.35
G1 F900 X20.74 Y-2.59 E45.67126
G0 F6000 X21.59 Y-2.59
G1 F900 X23.69 Y-0.50 E45.90617
G0 F6000 X23.68 Y-1.34
G1 F900 X22.44 Y-2.59 E46.04578
G0 F6000 X23.29 Y-2.59
G1 F900 X23.68 Y-2.19 E46.09021
;LAYER:1
M106 S255
G0 F6000 X24.06 Y-3.15 Z0.50
;TYPE:WALL-INNER
G1 F1260 X24.22 Y-3.08 E46.09799
G1 X24.25 Y2.96 E46.36396
G1 X24.18 Y3.12 E46.37174
G1 X-21.08 Y3.15 E48.36616
G1 X-21.50 Y3.12 E48.38476
G1 X-21.91 Y3.04 E48.40285
G1 X-22.29 Y2.91 E48.42076
G1 X-22.66 Y2.73 E48.43876
G1 X-23.12 Y2.42 E48.46340
G1 X-23.43 Y2.12 E48.48248
G1 X-23.68 Y1.80 E48.50003
G1 X-23.89 Y1.46 E48.51803
G1 X-24.06 Y1.08 E48.53620
G1 X-24.17 Y0.69 E48.55390
G1 X-24.23 Y0.29 E48.57173
G1 X-24.24 Y-0.10 E48.58928
G1 X-24.17 Y-0.70 E48.61585
G1 X-24.05 Y-1.08 E48.63345
G1 X-23.89 Y-1.45 E48.65113
G1 X-23.68 Y-1.81 E48.66946
G1 X-23.43 Y-2.12 E48.68689
G1 X-23.13 Y-2.40 E48.70512
G1 X-22.81 Y-2.65 E48.72299
G1 X-22.45 Y-2.84 E48.74082
G1 X-21.92 Y-3.04 E48.76602
G1 X-21.50 Y-3.12 E48.78480
G1 X24.06 Y-3.12 E50.79253
G1 F6000 E50.29253
G0 X-18.00 Y0.00
G1 F6000 E50.79253
G1 F1260 X-18.04 Y-0.52 E50.81561
G1 X-18.17 Y-1.03 E50.83871
G1 X-18.38 Y-1.49 E50.86112
G1 X-18.57 Y-1.80 E50.87703
G1 X-18.91 Y-2.19 E50.89967
G1 X-19.30 Y-2.53 E50.92278
G1 X-19.75 Y-2.79 E50.94545
G1 X-20.07 Y-2.92 E50.96063
G1 X-20.25 Y-2.98 E50.96923
G1 X-20.59 Y-3.06 E50.98422
G1 X-21.10 Y-3.10 E51.00700
G1 X-21.62 Y-3.06 E51.03014
G1 X-22.13 Y-2.92 E51.05319
G1 X-22.59 Y-2.71 E51.07560
G1 X-22.90 Y-2.52 E51.09151
G1 X-23.29 Y-2.19 E51.11415
G1 X-23.63 Y-1.79 E51.13726
G1 X-23.89 Y-1.35 E51.15993
G1 X-24.02 Y-1.03 E51.17511
G1 X-24.08 Y-0.84 E51.18371
G1 X-24.16 Y-0.51 E51.19870
G1 X-24.20 Y0.00 E51.22144
G1 X-24.16 Y0.52 E51.24457
G1 X-24.02 Y1.03 E51.26763
G1 X-23.82 Y1.49 E51.29003
G1 X-23.62 Y1.80 E51.30595
G1 X-23.29 Y2.19 E51.32859
G1 X-22.89 Y2.53 E51.35170
G1 X-22.45 Y2.79 E51.37437
G1 X-22.13 Y2.92 E51.38955
G1 X-21.95 Y2.98 E51.39815
G1 X-21.61 Y3.06 E51.41314
G1 X-21.10 Y3.10 E51.43588
G1 X-20.58 Y3.06 E51.45905
G1 X-20.07 Y2.92 E51.48211
G1 X-19.61 Y2.71 E51.50452
G1 X-19.30 Y2.52 E51.52043
G1 X-18.91 Y2.19 E51.54307
G1 X-18.57 Y1.79 E51.56618
G1 X-18.31 Y1.35 E51.58885
G1 X-18.18 Y1.03 E51.60403
G1 X-18.12 Y0.84 E51.61263
G1 X-18.04 Y0.51 E51.62767
G1 X-18.04 Y0.51 E51.62767
G1 F6000 E51.12767
G0 X-18.50 Y0.00
;TYPE:WALL-OUTER
G1 F6000 E51.62767
G1 F1560 X-18.54 Y-0.44 E51.64700
G1 X-18.65 Y-0.86 E51.66631
G1 X-18.83 Y-1.26 E51.68543
G1 X-18.98 Y-1.50 E51.69833
G1 X-19.26 Y-1.84 E51.71750
G1 X-19.59 Y-2.12 E51.73686
G1 X-19.97 Y-2.34 E51.75606
G1 X-20.24 Y-2.45 E51.76871
G1 X-20.66 Y-2.56 E51.78822
G1 X-21.10 Y-2.60 E51.80746
G1 X-21.54 Y-2.56 E51.82683
G1 X-21.96 Y-2.45 E51.84611
G1 X-22.36 Y-2.27 E51.86522
G1 X-22.61 Y-2.12 E51.87812
G1 X-22.94 Y-1.84 E51.89729
G1 X-23.22 Y-1.50 E51.91665
G1 X-23.44 Y-1.13 E51.93585
G1 X-23.55 Y-0.86 E51.94850
G1 X-23.66 Y-0.43 E51.96801
G1 X-23.70 Y0.00 E51.98721
G1 X-23.66 Y0.44 E52.00658
G1 X-23.55 Y0.86 E52.02585
G1 X-23.37 Y1.26 E52.04497
G1 X-23.22 Y1.50 E52.05787
G1 X-22.94 Y1.84 E52.07704
G1 X-22.60 Y2.12 E52.09640
G1 X-22.23 Y2.34 E52.11559
G1 X-21.96 Y2.45 E52.12825
G1 X-21.53 Y2.56 E52.14775
G1 X-21.10 Y2.60 E52.16695
G1 X-20.66 Y2.56 E52.18637
G1 X-20.24 Y2.45 E52.20565
G1 X-19.84 Y2.27 E52.22476
G1 X-19.59 Y2.12 E52.23766
G1 X-19.26 Y1.84 E52.25683
G1 X-18.98 Y1.50 E52.27619
G1 X-18.76 Y1.13 E52.29539
G1 X-18.65 Y0.86 E52.30804
G1 X-18.54 Y0.43 E52.32756
G1 X-18.54 Y0.43 E52.32756
G0 X-18.50 Y0.00
G0 F6000 X-18.15 Y0.03
G0 X-18.61 Y1.76
G0 X-20.09 Y2.88
G0 X-21.09 Y3.30
G0 X-21.10 Y3.65
G1 F1560 X-21.57 Y3.62 E52.34836
G1 X-22.03 Y3.53 E52.36897
G1 X-22.48 Y3.38 E52.38985
G1 X-22.91 Y3.17 E52.41100
G1 X-23.45 Y2.79 E52.44036
G1 X-23.80 Y2.46 E52.46118
G1 X-24.09 Y2.09 E52.48191
G1 X-24.33 Y1.69 E52.50261
G1 X-24.53 Y1.25 E52.52354
G1 X-24.66 Y0.80 E52.54440
G1 X-24.73 Y0.34 E52.56509
G1 X-24.75 Y-0.13 E52.58564
G1 X-24.66 Y-0.81 E52.61572
G1 X-24.52 Y-1.26 E52.63639
G1 X-24.33 Y-1.69 E52.65727
G1 X-24.09 Y-2.09 E52.67798
G1 X-23.80 Y-2.46 E52.69870
G1 X-23.46 Y-2.78 E52.71924
G1 X-23.08 Y-3.06 E52.74023
G1 X-22.66 Y-3.30 E52.76120
G1 X-22.03 Y-3.53 E52.79067
G1 X-21.57 Y-3.62 E52.81166
G1 X-21.10 Y-3.65 E52.83233
G1 X24.09 Y-3.65 E54.82379
G1 X24.24 Y-3.63 E54.83036
G1 X24.37 Y-3.59 E54.83660
G1 X24.49 Y-3.51 E54.84268
G1 X24.61 Y-3.39 E54.85041
G1 X24.69 Y-3.27 E54.85656
G1 X24.73 Y-3.14 E54.86280
G1 X24.75 Y-2.99 E54.86942
G1 X24.75 Y2.99 E55.13287
G1 X24.73 Y3.14 E55.13943
G1 X24.69 Y3.27 E55.14568
G1 X24.61 Y3.39 E55.15169
G1 X24.49 Y3.51 E55.15948
G1 X24.37 Y3.59 E55.16564
G1 X24.24 Y3.63 E55.17188
G1 X24.09 Y3.65 E55.17849
G1 X-21.10 Y3.65 E57.16987
G0 X-21.10 Y3.65
G0 F6000 X-21.09 Y3.30
G0 X-19.51 Y2.89
;TYPE:FILL
G1 F1560 X-19.43 Y2.81 E57.17498
G0 F6000 X-18.88 Y2.97
G1 F1560 X-12.96 Y-2.95 E57.54431
G0 F6000 X-13.66 Y-2.95
G1 F1560 X-18.30 Y1.68 E57.83315
G0 F6000 X-17.86 Y0.54
G1 F1560 X-14.37 Y-2.95 E58.05085
G0 F6000 X-15.08 Y-2.95
G1 F1560 X-17.84 Y-0.19 E58.22274
G0 F6000 X-17.93 Y-0.80
G1 F1560 X-15.79 Y-2.95 E58.35655
G0 F6000 X-16.49 Y-2.95
G1 F1560 X-18.12 Y-1.33 E58.45764
G0 F6000 X-18.36 Y-1.79
G1 F1560 X-17.20 Y-2.95 E58.52987
G0 F6000 X-17.91 Y-2.95
G1 F1560 X-18.67 Y-2.19 E58.57736
G0 F6000 X-19.03 Y-2.53
G1 F1560 X-18.97 Y-2.95 E58.60335
G1 X-19.45 Y-2.82 E58.62539
G0 F6000 X-18.09 Y-0.51
G0 X-18.35 Y1.33
G0 X-18.18 Y2.97
G1 F1560 X-12.25 Y-2.95 E58.99475
G0 F6000 X-11.54 Y-2.95
G1 F1560 X-17.47 Y2.97 E59.36411
G0 F6000 X-16.76 Y2.97
G1 F1560 X-10.83 Y-2.95 E59.73347
G0 F6000 X-10.13 Y-2.95
G1 F1560 X-16.05 Y2.97 E60.10277
G0 F6000 X-15.35 Y2.97
G1 F1560 X-9.42 Y-2.95 E60.47211
G0 F6000 X-8.71 Y-2.96
G1 F1560 X-14.64 Y2.97 E60.84147
G0 F6000 X-13.93 Y2.97
G1 F1560 X-8.00 Y-2.96 E61.21077
G0 F6000 X-7.30 Y-2.96
G1 F1560 X-13.22 Y2.97 E61.58013
G0 F6000 X-12.52 Y2.97
G1 F1560 X-6.59 Y-2.96 E61.94943
G0 F6000 X-5.88 Y-2.96
G1 F1560 X-11.81 Y2.97 E62.31876
G0 F6000 X-11.10 Y2.97
G1 F1560 X-5.17 Y-2.96 E62.68813
G0 F6000 X-4.47 Y-2.96
G1 F1560 X-10.39 Y2.97 E63.05746
G0 F6000 X-9.69 Y2.97
G1 F1560 X-3.76 Y-2.96 E63.42679
G0 F6000 X-3.05 Y-2.96
G1 F1560 X-8.98 Y2.97 E63.79612
G0 F6000 X-8.27 Y2.97
G1 F1560 X-2.34 Y-2.96 E64.16545
G0 F6000 X-1.64 Y-2.96
G1 F1560 X-7.56 Y2.97 E64.53475
G0 F6000 X-6.86 Y2.97
G1 F1560 X-0.93 Y-2.96 E64.90406
G0 F6000 X-0.22 Y-2.96
G1 F1560 X-6.15 Y2.96 E65.27336
G0 F6000 X-5.44 Y2.96
G1 F1560 X0.48 Y-2.96 E65.64256
G0 F6000 X1.19 Y-2.96
G1 F1560 X-4.73 Y2.96 E66.01183
G0 F6000 X-4.02 Y2.96
G1 F1560 X1.90 Y-2.96 E66.38113
G0 F6000 X2.61 Y-2.96
G1 F1560 X-3.32 Y2.96 E66.75040
G0 F6000 X-2.61 Y2.96
G1 F1560 X3.32 Y-2.96 E67.11967
G0 F6000 X4.02 Y-2.96
G1 F1560 X-1.90 Y2.96 E67.48891
G0 F6000 X-1.19 Y2.96
G1 F1560 X4.73 Y-2.96 E67.85818
G0 F6000 X5.44 Y-2.96
G1 F1560 X-0.49 Y2.96 E68.22751
G0 F6000 X0.22 Y2.96
G1 F1560 X6.15 Y-2.96 E68.59681
G0 F6000 X6.85 Y-2.96
G1 F1560 X0.93 Y2.96 E68.96605
G0 F6000 X1.64 Y2.96
G1 F1560 X7.56 Y-2.96 E69.33532
G0 F6000 X8.27 Y-2.96
G1 F1560 X2.34 Y2.96 E69.70456
G0 F6000 X3.05 Y2.96
G1 F1560 X8.98 Y-2.97 E70.07383
G0 F6000 X9.68 Y-2.97
G1 F1560 X3.76 Y2.96 E70.44310
G0 F6000 X4.47 Y2.96
G1 F1560 X10.39 Y-2.97 E70.81236
G0 F6000 X11.10 Y-2.97
G1 F1560 X5.17 Y2.96 E71.18160
G0 F6000 X5.88 Y2.96
G1 F1560 X11.81 Y-2.97 E71.55084
G0 F6000 X12.51 Y-2.97
G1 F1560 X6.59 Y2.96 E71.92014
G0 F6000 X7.30 Y2.96
G1 F1560 X13.22 Y-2.97 E72.28938
G0 F6000 X13.93 Y-2.97
G1 F1560 X8.00 Y2.96 E72.65868
G0 F6000 X8.71 Y2.96
G1 F1560 X14.64 Y-2.97 E73.02792
G0 F6000 X15.34 Y-2.97
G1 F1560 X9.42 Y2.95 E73.39713
G0 F6000 X10.13 Y2.95
G1 F1560 X16.05 Y-2.97 E73.76639
G0 F6000 X16.76 Y-2.97
G1 F1560 X10.83 Y2.95 E74.13563
G0 F6000 X11.54 Y2.95
G1 F1560 X17.47 Y-2.97 E74.50484
G0 F6000 X18.17 Y-2.97
G1 F1560 X12.25 Y2.95 E74.87408
G0 F6000 X12.96 Y2.95
G1 F1560 X18.88 Y-2.97 E75.24325
G0 F6000 X19.59 Y-2.97
G1 F1560 X13.66 Y2.95 E75.61249
G0 F6000 X14.37 Y2.95
G1 F1560 X20.30 Y-2.97 E75.98173
G0 F6000 X21.00 Y-2.97
G1 F1560 X15.08 Y2.95 E76.35097
G0 F6000 X15.79 Y2.95
G1 F1560 X21.71 Y-2.97 E76.72021
G0 F6000 X22.42 Y-2.97
G1 F1560 X16.49 Y2.95 E77.08944
G0 F6000 X17.20 Y2.95
G1 F1560 X23.13 Y-2.97 E77.45868
G0 F6000 X23.83 Y-2.97
G1 F1560 X17.91 Y2.95 E77.82786
G0 F6000 X18.62 Y2.95
G1 F1560 X24.05 Y-2.48 E78.16625
G0 F6000 X24.05 Y-1.78
G1 F1560 X19.32 Y2.95 E78.46070
G0 F6000 X20.03 Y2.95
G1 F1560 X24.05 Y-1.07 E78.71127
G0 F6000 X24.06 Y-0.37
G1 F1560 X20.74 Y2.95 E78.91797
G0 F6000 X21.45 Y2.95
G1 F1560 X24.06 Y0.33 E79.08088
G0 F6000 X24.06 Y1.04
G1 F1560 X22.16 Y2.95 E79.19986
G0 F6000 X22.86 Y2.95
G1 F1560 X24.07 Y1.74 E79.27502
G0 F6000 X24.07 Y2.44
G1 F1560 X23.57 Y2.94 E79.30628
;LAYER:2
G0 F6000 X24.17 Y3.33 Z0.70
;TYPE:WALL-INNER
G1 F1260 X-21.08 Y3.35 E81.30052
G1 X-21.52 Y3.32 E81.31960
G1 X-21.94 Y3.24 E81.33848
G1 X-22.34 Y3.11 E81.35727
G1 X-22.72 Y2.93 E81.37556
G1 X-23.07 Y2.70 E81.39425
G1 X-23.40 Y2.43 E81.41311
G1 X-23.58 Y2.25 E81.42443
G1 X-23.85 Y1.91 E81.44337
G1 X-24.07 Y1.55 E81.46185
G1 X-24.24 Y1.16 E81.48048
G1 X-24.36 Y0.76 E81.49892
G1 X-24.43 Y0.34 E81.51783
G1 X-24.45 Y-0.07 E81.53604
G1 X-24.41 Y-0.50 E81.55480
G1 X-24.31 Y-0.93 E81.57424
G1 X-24.24 Y-1.16 E81.58501
G1 X-24.07 Y-1.55 E81.60376
G1 X-23.85 Y-1.91 E81.62225
G1 X-23.59 Y-2.24 E81.64094
G1 X-23.28 Y-2.54 E81.65973
G1 X-22.95 Y-2.79 E81.67805
G1 X-22.58 Y-3.00 E81.69684
G1 X-22.18 Y-3.17 E81.71579
G1 X-21.93 Y-3.24 E81.72722
G1 X-21.52 Y-3.32 E81.74588
G1 X24.06 Y-3.35 E83.75449
G1 X24.25 Y-3.31 E83.76298
G1 X24.39 Y-3.19 E83.77144
G1 X24.45 Y0.59 E83.93809
G1 X24.43 Y3.07 E84.04708
G1 X24.34 Y3.25 E84.05595
G1 X24.34 Y3.25 E84.05595
G1 F6000 E83.55595
G0 X-18.20 Y0.00
G1 F6000 E84.05595
G1 F1260 X-18.24 Y-0.51 E84.07851
G1 X-18.38 Y-1.00 E84.10108
G1 X-18.59 Y-1.44 E84.12256
G1 X-18.73 Y-1.67 E84.13430
G1 X-19.05 Y-2.05 E84.15617
G1 X-19.44 Y-2.38 E84.17874
G1 X-19.89 Y-2.63 E84.20140
G1 X-20.34 Y-2.80 E84.22277
G1 X-20.60 Y-2.86 E84.23454
G1 X-21.10 Y-2.90 E84.25657
G1 X-21.61 Y-2.86 E84.27918
G1 X-22.10 Y-2.72 E84.30171
G1 X-22.54 Y-2.51 E84.32320
G1 X-22.77 Y-2.37 E84.33494
G1 X-23.15 Y-2.05 E84.35680
G1 X-23.48 Y-1.66 E84.37938
G1 X-23.73 Y-1.21 E84.40203
G1 X-23.90 Y-0.76 E84.42340
G1 X-23.96 Y-0.50 E84.43517
G1 X-24.00 Y0.00 E84.45716
G1 X-23.96 Y0.51 E84.47977
G1 X-23.82 Y1.00 E84.50230
G1 X-23.61 Y1.44 E84.52379
G1 X-23.47 Y1.67 E84.53553
G1 X-23.15 Y2.05 E84.55739
G1 X-22.76 Y2.38 E84.57997
